metroid/_inc/system.svg

<svg xmlns="http://www.w3.org/2000/svg"><path d="m.005 93.368c.279-.279 3.075-1.509 6.258-2.793 7.041-2.796 12.348-5.475 18.441-9.165 7.71-4.695 9.273-6.927 27.321-39.168 14.358-25.647 15.867-28.665 15.591-30.396-.168-1.062-.672-2.346-1.176-2.904-.447-.504-.669-1.119-.447-1.398.282-.225.168-.279-.168-.114-.333.225-1.059-.111-1.62-.726-.558-.612-2.457-2.178-4.245-3.462-1.845-1.341-3.297-2.571-3.297-2.793 0-.282 11.064-.447 24.584-.447 23.019 0 24.585.054 24.585 1.005 0 2.682 1.62 18.159 1.956 18.438.168.168 2.124-1.452 4.359-3.576 2.232-2.178 7.095-6.648 10.782-9.891l6.762-5.976h109.179c120.189 0 114.936-.168 122.814 3.408 9.666 4.356 15.699 15.141 15.699 27.879 0 8.718-1.896 14.751-6.144 19.335-1.23 1.341-2.235 2.904-2.235 3.408.054 1.284 11.901 16.707 16.371 21.288 4.359 4.47 13.242 10.728 15.198 10.728.222 0-1.398-1.956-3.576-4.302-2.961-3.186-4.635-5.7-6.651-9.891-3.129-6.369-3.912-9.33-6.258-23.523-.891-5.532-2.175-12.684-2.793-15.924-1.788-9.444-1.338-14.805 1.788-20.841 2.124-3.912 5.364-6.987 10.059-9.441l3.519-1.848h72.639 72.636l4.191 1.287c7.317 2.289 15.924 7.095 20.451 11.4 5.196 4.914 8.1 9.219 16.146 23.913 3.633 6.594 7.767 14.136 9.222 16.761 2.793 5.088 6.144 12.294 7.32 15.927.387 1.227.726 4.749.726 7.821.054 4.695-.171 5.979-1.173 7.824-1.677 3.129-4.359 5.586-8.049 7.206l-3.129 1.455-66.435-.114-66.435-.168 5.028-2.736c7.656-4.248 12.573-9.444 12.573-13.353 0-2.238-19.224-57.999-21.456-62.19-2.4-4.638-4.134-5.922-9.945-7.431-5.478-1.509-5.532-1.509-2.904.39 6.423 4.695 9.552 11.007 16.425 33.078 5.979 19.164 6.705 22.182 6.705 28.218 0 12.012-6.315 20.898-16.764 23.691-1.896.501-17.823.615-63.975.501-53.697-.168-127.116.057-127.116.057h-29.337l3.915-2.067c13.746-7.434 16.761-9.723 18.606-13.914.729-1.731 1.566-6.147 2.292-12.459.672-5.364 1.452-11.679 1.731-13.971.837-6.48 2.793-24.585 2.793-26.091 0-1.341-.057-1.341-4.86-1.173l-4.92.165-2.514 3.747c-1.398 2.064-4.242 6.648-6.426 10.167-2.121 3.519-3.963 6.315-4.077 6.201-.114-.111.225-3.687.726-7.989.504-4.302.837-8.268.726-8.829-.111-.558-1.119 3.129-2.346 8.16-1.176 5.082-2.292 9.441-2.514 9.666-.225.222-1.008-2.682-1.734-6.426-.672-3.801-1.674-8.493-2.178-10.506l-.894-3.63-12.963-.168-12.963-.111-.615 2.346c-.336 1.341-.726 2.847-.894 3.408-.279.894.615.948 13.41.948 11.064 0 13.746.168 13.746.726 0 .45-1.005 5.535-2.235 11.346s-2.232 10.728-2.232 11.004c0 .225-6.654.393-14.754.393h-14.694l-.894 3.243c-.504 1.728-1.062 4.245-1.284 5.586l-.393 2.346h13.128 13.131l7.209-8.829c3.969-4.917 7.263-8.547 7.374-8.157.114.447-.558 5.589-1.506 11.511s-2.346 15.084-3.129 20.283c-.783 5.25-1.563 10.335-1.734 11.34l-.336 1.791h-71.352c-68.949 0-71.24-.057-69.618-1.008.952-.558 4.47-2.625 7.821-4.638 4.248-2.457 7.377-4.803 10.002-7.485 3.408-3.411 4.359-4.917 7.602-11.736 2.067-4.302 3.909-8.379 4.131-9.105.225-.672 1.398-3.411 2.628-6.036 1.23-2.682 2.178-5.028 2.067-5.307-.111-.225-2.793 2.121-6.033 5.25-4.974 4.863-8.94 8.493-19.836 18.384l-1.677 1.566-.39-2.682c-.225-1.455-.672-6.651-1.008-11.568-.783-11.901-1.116-14.862-1.788-14.472-.279.168-.393.447-.222.615.111.168-3.243 7.263-7.487 15.813-4.248 8.493-8.046 16.539-8.382 17.826-.948 3.519.057 5.811 4.638 10.56l3.912 4.023h-37.605c-22.125 0-37.437-.225-37.101-.504zm303.734-7.266c2.685-1.617 5.367-3.519 5.979-4.299 2.463-3.129 2.514-3.912 2.067-35.592-.444-34.143-.333-33.414-4.914-36.711l-2.403-1.788-.39 2.178c-.228 1.173-.393 4.638-.447 7.713-.057 6.702-1.398 26.985-1.788 27.432-.339.336-3.912-8.772-6.258-15.756-1.734-5.253-1.677-5.253-8.493-5.253h-4.47l-.672 10.785c-.393 5.865-1.062 16.149-1.509 22.74-.447 6.594-.84 14.193-.84 16.875 0 4.917 0 4.917 2.124 7.263 2.067 2.292 5.7 4.917 11.007 7.824 2.739 1.509 2.796 1.509 4.47.501.894-.558 3.855-2.289 6.537-3.912zm53.532 2.406c0-.168-.837-1.62-1.845-3.186-1.005-1.62-2.682-4.302-3.744-5.979-1.008-1.677-3.351-5.478-5.139-8.382-1.734-2.904-3.744-5.922-4.413-6.705l-1.119-1.395.333 6.426c.39 7.932.951 10.056 3.183 12.627 2.295 2.571 12.744 7.989 12.744 6.594zm-213.276-5.646c3.24-3.183 4.86-5.25 5.979-7.71 1.398-3.015 7.764-22.461 16.482-50.286 3.354-10.617 3.576-13.245 1.566-15.477-1.623-1.788-4.863-.84-8.439 2.568-2.571 2.346-3.519 4.413-7.935 16.764-4.47 12.405-10.167 28.104-15.03 41.013-1.899 4.971-3.408 9.945-3.408 10.95 0 1.509.504 2.346 2.514 4.191 1.341 1.227 2.796 2.289 3.129 2.289.336 0 2.628-1.953 5.142-4.302zm378.105-2.847c0-2.124-.837-4.584-4.638-13.245-8.715-20.058-13.8-31.791-16.428-37.992-5.586-13.245-7.821-16.485-12.738-18.384-2.067-.84-2.46-.84-5.31.057-3.963 1.284-4.023 2.01-1.227 9.663 3.63 9.666 13.185 34.365 16.872 43.305 1.902 4.638 3.804 9.387 4.305 10.617 1.23 3.072 5.925 7.767 10.056 10.113 1.956 1.116 3.687 2.235 3.855 2.568.225.393 1.398-.39 2.85-1.953 1.956-2.124 2.403-2.961 2.403-4.749zm41.013-18.552c.336-2.067-.057-2.961-4.248-10.785-2.514-4.638-5.64-10.449-6.927-12.906-2.181-4.134-2.628-4.581-7.545-7.935-5.25-3.573-5.25-3.573-9.273-3.573-2.178 0-4.191.276-4.359.555-.168.336-.054.561.225.561.333 0 .615.222.615.447 0 .279 3.909 8.436 8.661 18.159l8.661 17.712h6.927 6.87zm-135.555.225c.672-.45 1.23-1.287 1.23-1.788 0-1.173-7.041-27.603-7.935-29.949-.444-1.119-1.563-2.013-3.963-3.186-3.189-1.509-3.357-1.509-5.199-.615-1.062.447-1.899 1.116-1.899 1.398 0 .279.726 3.798 1.677 7.821.891 4.08 2.457 11.007 3.465 15.423l1.842 8.046 3.351 1.842c3.687 2.07 5.535 2.346 7.431 1.008zm-77.721-25.926 1.23-3.075-1.899-3.351-1.845-3.354-4.302-.168-4.245-.165.333 5.475c.558 8.661.171 8.046 5.199 7.878l4.302-.168zm182.319-5.031c0-.279-.108-.558-.222-.558-.168 0-.447.279-.615.558-.165.336-.054.558.225.558.336 0 .612-.222.612-.558z" fill="#fff"/></svg>

<?xml version="1.0" encoding="utf-8"?>
<svg version="1.0" xmlns="http://www.w3.org/2000/svg">
  <g>
    <path d="M 0.005 93.368 C 0.284 93.089 3.08 91.859 6.263 90.575 C 13.304 87.779 18.611 85.1 24.704 81.41 C 32.414 76.715 33.977 74.483 52.025 42.242 C 66.383 16.595 67.892 13.577 67.616 11.846 C 67.448 10.784 66.944 9.5 66.44 8.942 C 65.993 8.438 65.771 7.823 65.993 7.544 C 66.275 7.319 66.161 7.265 65.825 7.43 C 65.492 7.655 64.766 7.319 64.205 6.704 C 63.647 6.092 61.748 4.526 59.96 3.242 C 58.115 1.901 56.663 0.671 56.663 0.449 C 56.663 0.167 67.727 0.002 81.247 0.002 C 104.266 0.002 105.832 0.056 105.832 1.007 C 105.832 3.689 107.452 19.166 107.788 19.445 C 107.956 19.613 109.912 17.993 112.147 15.869 C 114.379 13.691 119.242 9.221 122.929 5.978 L 129.691 0.002 L 238.87 0.002 C 359.059 0.002 353.806 -0.166 361.684 3.41 C 371.35 7.766 377.383 18.551 377.383 31.289 C 377.383 40.007 375.487 46.04 371.239 50.624 C 370.009 51.965 369.004 53.528 369.004 54.032 C 369.058 55.316 380.905 70.739 385.375 75.32 C 389.734 79.79 398.617 86.048 400.573 86.048 C 400.795 86.048 399.175 84.092 396.997 81.746 C 394.036 78.56 392.362 76.046 390.346 71.855 C 387.217 65.486 386.434 62.525 384.088 48.332 C 383.197 42.8 381.913 35.648 381.295 32.408 C 379.507 22.964 379.957 17.603 383.083 11.567 C 385.207 7.655 388.447 4.58 393.142 2.126 L 396.661 0.278 L 469.3 0.278 L 541.936 0.278 L 546.127 1.565 C 553.444 3.854 562.051 8.66 566.578 12.965 C 571.774 17.879 574.678 22.184 582.724 36.878 C 586.357 43.472 590.491 51.014 591.946 53.639 C 594.739 58.727 598.09 65.933 599.266 69.566 C 599.653 70.793 599.992 74.315 599.992 77.387 C 600.046 82.082 599.821 83.366 598.819 85.211 C 597.142 88.34 594.46 90.797 590.77 92.417 L 587.641 93.872 L 521.206 93.758 L 454.771 93.59 L 459.799 90.854 C 467.455 86.606 472.372 81.41 472.372 77.501 C 472.372 75.263 453.148 19.502 450.916 15.311 C 448.516 10.673 446.782 9.389 440.971 7.88 C 435.493 6.371 435.439 6.371 438.067 8.27 C 444.49 12.965 447.619 19.277 454.492 41.348 C 460.471 60.512 461.197 63.53 461.197 69.566 C 461.197 81.578 454.882 90.464 444.433 93.257 C 442.537 93.758 426.61 93.872 380.458 93.758 C 326.761 93.59 253.342 93.815 253.342 93.815 L 224.005 93.815 L 227.92 91.748 C 241.666 84.314 244.681 82.025 246.526 77.834 C 247.255 76.103 248.092 71.687 248.818 65.375 C 249.49 60.011 250.27 53.696 250.549 51.404 C 251.386 44.924 253.342 26.819 253.342 25.313 C 253.342 23.972 253.285 23.972 248.482 24.14 L 243.562 24.305 L 241.048 28.052 C 239.65 30.116 236.806 34.7 234.622 38.219 C 232.501 41.738 230.659 44.534 230.545 44.42 C 230.431 44.309 230.77 40.733 231.271 36.431 C 231.775 32.129 232.108 28.163 231.997 27.602 C 231.886 27.044 230.878 30.731 229.651 35.762 C 228.475 40.844 227.359 45.203 227.137 45.428 C 226.912 45.65 226.129 42.746 225.403 39.002 C 224.731 35.201 223.729 30.509 223.225 28.496 L 222.331 24.866 L 209.368 24.698 L 196.405 24.587 L 195.79 26.933 C 195.454 28.274 195.064 29.78 194.896 30.341 C 194.617 31.235 195.511 31.289 208.306 31.289 C 219.37 31.289 222.052 31.457 222.052 32.015 C 222.052 32.465 221.047 37.55 219.817 43.361 C 218.587 49.172 217.585 54.089 217.585 54.365 C 217.585 54.59 210.931 54.758 202.831 54.758 L 188.137 54.758 L 187.243 58.001 C 186.739 59.729 186.181 62.246 185.959 63.587 L 185.566 65.933 L 198.694 65.933 L 211.825 65.933 L 219.034 57.104 C 223.003 52.187 226.297 48.557 226.408 48.947 C 226.522 49.394 225.85 54.536 224.902 60.458 C 223.954 66.38 222.556 75.542 221.773 80.741 C 220.99 85.991 220.21 91.076 220.039 92.081 L 219.703 93.872 L 148.351 93.872 C 79.402 93.872 77.111 93.815 78.733 92.864 C 79.685 92.306 83.203 90.239 86.554 88.226 C 90.802 85.769 93.931 83.423 96.556 80.741 C 99.964 77.33 100.915 75.824 104.158 69.005 C 106.225 64.703 108.067 60.626 108.289 59.9 C 108.514 59.228 109.687 56.489 110.917 53.864 C 112.147 51.182 113.095 48.836 112.984 48.557 C 112.873 48.332 110.191 50.678 106.951 53.807 C 101.977 58.67 98.011 62.3 87.115 72.191 L 85.438 73.757 L 85.048 71.075 C 84.823 69.62 84.376 64.424 84.04 59.507 C 83.257 47.606 82.924 44.645 82.252 45.035 C 81.973 45.203 81.859 45.482 82.03 45.65 C 82.141 45.818 78.787 52.913 74.543 61.463 C 70.295 69.956 66.497 78.002 66.161 79.289 C 65.213 82.808 66.218 85.1 70.799 89.849 L 74.711 93.872 L 37.106 93.872 C 14.981 93.872 -0.331 93.647 0.005 93.368 Z M 303.739 86.102 C 306.424 84.485 309.106 82.583 309.718 81.803 C 312.181 78.674 312.232 77.891 311.785 46.211 C 311.341 12.068 311.452 12.797 306.871 9.5 L 304.468 7.712 L 304.078 9.89 C 303.85 11.063 303.685 14.528 303.631 17.603 C 303.574 24.305 302.233 44.588 301.843 45.035 C 301.504 45.371 297.931 36.263 295.585 29.279 C 293.851 24.026 293.908 24.026 287.092 24.026 L 282.622 24.026 L 281.95 34.811 C 281.557 40.676 280.888 50.96 280.441 57.551 C 279.994 64.145 279.601 71.744 279.601 74.426 C 279.601 79.343 279.601 79.343 281.725 81.689 C 283.792 83.981 287.425 86.606 292.732 89.513 C 295.471 91.022 295.528 91.022 297.202 90.014 C 298.096 89.456 301.057 87.725 303.739 86.102 Z M 357.271 88.508 C 357.271 88.34 356.434 86.888 355.426 85.322 C 354.421 83.702 352.744 81.02 351.682 79.343 C 350.674 77.666 348.331 73.865 346.543 70.961 C 344.809 68.057 342.799 65.039 342.13 64.256 L 341.011 62.861 L 341.344 69.287 C 341.734 77.219 342.295 79.343 344.527 81.914 C 346.822 84.485 357.271 89.903 357.271 88.508 Z M 143.995 82.862 C 147.235 79.679 148.855 77.612 149.974 75.152 C 151.372 72.137 157.738 52.691 166.456 24.866 C 169.81 14.249 170.032 11.621 168.022 9.389 C 166.399 7.601 163.159 8.549 159.583 11.957 C 157.012 14.303 156.064 16.37 151.648 28.721 C 147.178 41.126 141.481 56.825 136.618 69.734 C 134.719 74.705 133.21 79.679 133.21 80.684 C 133.21 82.193 133.714 83.03 135.724 84.875 C 137.065 86.102 138.52 87.164 138.853 87.164 C 139.189 87.164 141.481 85.211 143.995 82.862 Z M 522.1 80.015 C 522.1 77.891 521.263 75.431 517.462 66.77 C 508.747 46.712 503.662 34.979 501.034 28.778 C 495.448 15.533 493.213 12.293 488.296 10.394 C 486.229 9.554 485.836 9.554 482.986 10.451 C 479.023 11.735 478.963 12.461 481.759 20.114 C 485.389 29.78 494.944 54.479 498.631 63.419 C 500.533 68.057 502.435 72.806 502.936 74.036 C 504.166 77.108 508.861 81.803 512.992 84.149 C 514.948 85.265 516.679 86.384 516.847 86.717 C 517.072 87.11 518.245 86.327 519.697 84.764 C 521.653 82.64 522.1 81.803 522.1 80.015 Z M 563.113 61.463 C 563.449 59.396 563.056 58.502 558.865 50.678 C 556.351 46.04 553.225 40.229 551.938 37.772 C 549.757 33.638 549.31 33.191 544.393 29.837 C 539.143 26.264 539.143 26.264 535.12 26.264 C 532.942 26.264 530.929 26.54 530.761 26.819 C 530.593 27.155 530.707 27.38 530.986 27.38 C 531.319 27.38 531.601 27.602 531.601 27.827 C 531.601 28.106 535.51 36.263 540.262 45.986 L 548.923 63.698 L 555.85 63.698 L 562.72 63.698 L 563.113 61.463 Z M 427.558 61.688 C 428.23 61.238 428.788 60.401 428.788 59.9 C 428.788 58.727 421.747 32.297 420.853 29.951 C 420.409 28.832 419.29 27.938 416.89 26.765 C 413.701 25.256 413.533 25.256 411.691 26.15 C 410.629 26.597 409.792 27.266 409.792 27.548 C 409.792 27.827 410.518 31.346 411.469 35.369 C 412.36 39.449 413.926 46.376 414.934 50.792 L 416.776 58.838 L 420.127 60.68 C 423.814 62.75 425.662 63.026 427.558 61.688 Z M 349.837 35.762 L 351.067 32.687 L 349.168 29.336 L 347.323 25.982 L 343.021 25.814 L 338.776 25.649 L 339.109 31.124 C 339.667 39.785 339.28 39.17 344.308 39.002 L 348.61 38.834 L 349.837 35.762 Z M 532.156 30.731 C 532.156 30.452 532.048 30.173 531.934 30.173 C 531.766 30.173 531.487 30.452 531.319 30.731 C 531.154 31.067 531.265 31.289 531.544 31.289 C 531.88 31.289 532.156 31.067 532.156 30.731 Z" style="fill: rgb(255, 255, 255);"/>
  </g>
</svg>
